X:1
T:Christ ist erstanden
T:Christ ist erstanden
T:Michael Praetorius
T:Dr Martin Luther
C:Michael Praetorius
Z:Dr Martin Luther
%%score [ 1 2 3 4 ]
L:1/8
Q:1/4=200
M:4/4
K:C
V:1 treble nm="MusicXML Part"
V:2 treble nm="MusicXML Part"
V:3 treble-8 nm="MusicXML Part"
V:4 bass nm="MusicXML Part"
V:1
 A8 G4 A4 (c4 d4) A8 | A4 G4 A4 F4 (E4 F4) D8 | F8 G4 F2 E2 D4 C4 (F4 G4) A8 | %3
w: Christ ist er- stan- * den|von der Mar- ter al- * le,|des sol- len wir al- le froh _ sein,|
"^*" A4 G4 A4 F4 (E4 F4) (D4 E8) | D2 D2 D8 D16 | A8 G4 A4 c4 d4 A8 | A8 A4 G4 A4 F4 (E4 F4) D8 | %7
w: Christ will un- ser Trost _ sein. _|Ky- ri- e- leis.|Wär er nicht er- stan- den,|so wär die Welt ver- gan- * gen;|
 F4 G4 D4 | C4 F4 G4 A8 | z4 A4 A2 A2 G2 G2 A4 F4 E4 F4 (D4 E8) | D2 D2 D8 D16 | %11
w: sind daß er|er- stan- den ist,|so lo- ben wir den Va- ter Je- su Christ. _|Ky- ri- e- leis.|
 A8 (G4 F4) (G4 _B4) A8 | c8 (A4 c4) (A4 G4) F8 | A8 (F4 D4) (E4 F4) D8 | %14
w: Al- le- * lu- * ja,|Al- le- * lu- * ja,|Al- le- * lu- * ja,|
 F8 G4 F2 E2 D4 C4 (F4 G4) A8 | A4 G4 A4 F4 (E4 F4) (D4 E8) D2 D2 D8 !fermata!D16 |] %16
w: des sol- len wir al- le froh _ sein,|Christ will un- ser Trost _ sein. _ Ky- ri- e- leis.|
V:2
 E8 E4 E4 (E4 G4) F8 | E4 E4 E4 D4 (^C4 D4) B,8 | C8 E4 D2 A,2 B,4 E4 D8 ^C8 | %3
w: Christ ist er- stan- * den|von der Mar- ter al- * le,|des sol- len wir al- le froh sein,|
 D4 B,4 E4 D4 (^C4 D8) ^C8 |"^*" D2 B,2 B,8 A,16 | E8 E4 F4 G4 F4 F8 | %6
w: Christ will un- ser Trost _ sein.|Ky- ri- e- leis.|Wär er nicht er- stan- den,|
 E8 F4 E4 C4 D4 (G,4 C4) B,8 | A,4 C2 G,4 G,2 | A,8 C4 C8 | z4 C4 F2 D2 E2 E2 C4 D4 A,4 D8 ^C8 | %10
w: so wär die Welt ver- gan- * gen;|sind daß er er-|stan- den ist,|so lo- ben wir den Va- ter Je- su Christ.|
 D2 A,2 B,8 A,16 | F8 (E4 D4) D8 D8 | E8 (C6 D2 E2 F2 E2) D2 C8 | C8 (D4 A,4) A,8 A,8 | %14
w: Ky- ri- e- leis.|Al- le- * lu- ja,|Al- le- * * * * lu- ja,|Al- le- * lu- ja,|
 D8 D4 C2 C2 B,4 A,4 (A,4 B,4) C8 | D4 B,4 E4 D4 (^C4 D8) ^C8 D2 B,2 B,8 !fermata!A,16 |] %16
w: des sol- len wir al- le froh _ sein,|Christ will un- ser Trost _ sein. Ky- ri- e- leis.|
V:3
 A8 B4 c4 (c4 B4) d8 | c4 B4 A4 A4 A8 G8 | A8 c4 A2 E2 G4 A4 (A4 G4) E8 | F4 G4 c4 A4 A8 (G4 E8) | %4
w: Christ ist er- stan- * den|von der Mar- ter al- le,|des sol- len wir al- le froh _ sein,|Christ will un- ser Trost sein. _|
"^*" ^F2 G2 G8 ^F16 | c8 c4 c4 G4 A4 d8 | A8 d4 B4 A4 A4 (c4 A4) G8 | F4 (E3 F G2) D2 | %8
w: Ky- ri- e- leis.|Wär er nicht er- stan- den,|so wär die Welt ver- gan- * gen;|sind daß _ _ er|
 E4 F4 E4 F8 | z4 A4 c2 A2 B2 c2 A4 A4 A8 G4 E8 | G2 ^F2 G8 ^F16 | c8 (c4 A4) (_B2 A2 G4) F8 | %12
w: er- stan- den ist,|so lo- ben wir den Va- ter Je- su Christ.|Ky- ri- e- leis.|Al- le- * lu- * * ja,|
 G8 (A6 B2 c4) c4 A8 | A8 (A4 F4) (E4 A4) ^F8 | A8 _B4 A2 G2 G4 E4 (F4 D4) E8 | %15
w: Al- le- * * lu- ja,|Al- le- * lu- * ja,|des sol- len wir al- le froh _ sein,|
 F4 G4 c4 A4 A8 (G4 E8) ^F2 G2 G8 !fermata!^F16 |] %16
w: Christ will un- ser Trost sein. _ Ky- ri- e- leis.|
V:4
 A,,8 E,4 A,,4 (A,,4 G,,4) D,8 | A,,4 E,4 ^C,4 D,4 (A,,4 D,4) G,,8 | %2
w: Christ ist er- stan- * den|von der Mar- ter al- * le,|
 F,,8 C,4 D,2 C,2 B,,4 A,,4 (D,4 B,,4) A,,8 | D,4 E,4 C,4 D,4 (A,,4 D,4) (B,,4 A,,8) | %4
w: des sol- len wir al- le froh _ sein,|Christ will un- ser Trost _ sein. _|
"^*""^*" D,2 G,,2 G,,8 D,16 | A,,8 C,4 F,4 E,4 D,4 D,8 | ^C,8 D,4 E,4 F,4 D,4 (=C,4 F,,4) G,,8 | %7
w: Ky- ri- e- leis.|Wär er nicht er- stan- den,|so wär die Welt ver- gan- * gen;|
 D,4 C,4 B,,4 | A,,4 D,4 C,4 F,,8 | z4 F,4 F,2 F,2 E,2 C,2 F,4 D,4 ^C,4 D,4 (B,,4 A,,8) | %10
w: sind daß er|er- stan- den ist,|so lo- ben wir den Va- ter Je- su Christ. _|
 B,,2 D,2 G,,8 D,16 | F,8 (C,4 D,4) G,,8 D,8 | C,8 F,8 C,8 F,,8 | F,8 D,8 (^C,4 D,4) D,8 | %14
w: Ky- ri- e- leis.|Al- le- * lu- ja,|Al- le- lu- ja,|Al- le- lu- * ja,|
 D,8 G,,4 A,,2 C,2 G,,4 A,,4 (D,4 B,,4) A,,8 | %15
w: des sol- len wir al- le froh _ sein,|
 D,4 E,4 C,4 D,4 (A,,4 D,4) (B,,4 A,,8) D,2 G,,2 G,,8 !fermata!D,16 |] %16
w: Christ will un- ser Trost _ sein. _ Ky- ri- e- leis.|

